X:1
T:Title
%%score 1 { ( 2 6 ) | ( 3 4 5 ) } { 7 | ( 8 9 ) }
L:1/8
M:4/4
K:Eb
V:1 treble nm="Akkordion"
V:2 treble nm="Grand Piano"
V:6 treble 
V:3 bass 
V:4 bass 
V:5 bass 
V:7 treble nm="Grand Piano"
V:8 bass 
V:9 bass 
V:1
 z4 z2[Q:1/4=100] B,2 | B,2 CD E2 F2 | G6 G2 | G2 G2 F2 G2 |[M:3/4] A6 |[M:1/4] A2 | %6
[M:4/4] A2 A2 G2 F2 | B2 B2 B2 =AG | F2 G2 D2 C2 |[M:3/4] B,6 |[M:1/4] B,2 |[M:4/4] A2 GG F2 E2 | %12
 D3 C B,2 B,2 | c2 B2 A2 G2 |[M:3/4] F3 E D2 |[M:1/4] B,2 |[M:4/4] E2 F2 G2 B2 | e3 e F2 c2 | %18
 G2 F2 B2 B2 |[M:3/4] B6 |[M:1/4] z2 |[M:4/4] z8 | z8 | z8 | z8 |[M:2/4] z4 | z4 |[M:4/4] z8 | z8 | %29
 z8 | z8 |[M:3/4] z6 |] %32
V:2
 z4 z2 B,2 | B,2 CD E2 F2 | [B,EG]2 [EG]2 [=B,FG]2 [FG]2 | [CEG]2 [B,_D=EG]2 [C_EF]2 [B,C=EG]2 | %4
[M:3/4] A6 |[M:1/4] [EA]2 |[M:4/4] [B,DA]4 G2 F2 | BBBB [_DGB]B=AG | %8
 [B,DF][DF][DG][DG] [=A,D]D[A,C]C |[M:3/4][K:bass] B,B, B,B, B,B, |[M:1/4] B,B, | %11
[M:4/4][K:treble] [ac']2 [gb]2 [fa]2 [eg]2 | [df]4 [Bd]2 B2 | [ca]2 [Bg]2 [Af]2 [Ge]2 | %14
[M:3/4] [Fd]3 [Ec] [DFB][FB] |[M:1/4] [DFB][FB] | %16
[M:4/4] [B,EB][EB][B,DB][DB] [B,GB][B,GB][B,DAB][AB] | [EBe]eee [CEF][CEF][CE_G][EG] | %18
 [B,EG][EG][B,DF][DF] [B,EB]BBB |[M:3/4] B6 |[M:1/4] B,2 |[M:4/4] G2 G2 [GB]3 [GB] | %22
 [Ac][GB][_G=A]B =G2 e2 | d2 c2 z4 | G6 G2 |[M:2/4] c3 c | c2 F2 |[M:4/4] d3 d d2 G2 | %28
 e2 e2 e2 [EBe]2 | [=Ae]4 z4 | e2 e2 G2 F2 |[M:3/4] E6 |] %32
V:3
 z8 | z4 B,4 | z2 B,2 z2 =B,2 | C,2 B,,2 A,,2 G,,2 |[M:3/4] F,,2 E,,2 D,,2 |[M:1/4] C,2 | %6
[M:4/4] B,,2 D,E, [B,D]2 [A,B,D]2 | EEDD z[K:treble] [_DG]DD | z B,B,B, z =A, z A, | %9
[M:3/4] [B,,D,]6 |[M:1/4] z2 |[M:4/4] B,,A,[A,B,D]A, B,,A,[A,B,D]A, | B,,A,A,[A,B,D] B,,A,A,A, | %13
 B,,B,,B,,B,, B,,B,,B,,B,, |[M:3/4] B,,B,, B,,B,, z D |[M:1/4] z D | %16
[M:4/4] z B, z B, [E,,E,]2 z [B,D] | z[K:treble] [EB][EB][EB][K:bass] [A,,A,]2 z C | %18
 z B, z B, z [B,E][_D=EG][DEG] |[M:3/4] [A,B,DF]6 |[M:1/4] B,,2 | %21
[M:4/4] [E,B,E]2 [E,B,E]2 [E,E]3 [E,E] | [E,E]2 z[K:treble] G [E,B,E]2 [G,B,E]2 | %23
 [A,E]2 .[A,CE]2[K:bass] [G,E]2 [F,B,D]2 | [E,B,E]6 [E,B,E]2 |[M:2/4] [A,E]3[K:treble] [A,E] | %26
 [=A,EF]2 [A,CE]2 |[M:4/4] [B,DF]3 [B,DF] [=B,FA]2 [B,DF]2 | [CEG]2 [B,_DG]2 [A,CA]2[K:bass] G,2 | %29
 F,2 G,=A, B,2[K:treble] [_A,B,F]2 | [G,B,E]2[K:bass] [A,CE]2 [B,E]2 [B,,A,B,]2 | %31
[M:3/4] [E,G,B,]6 |] %32
V:4
 x8 | G,6 A,2 | E,4 D,4 | x8 |[M:3/4] x6 |[M:1/4] x2 |[M:4/4] x8 | %7
 [G,B,]2 [F,A,]2 [=E,B,]4[K:treble] | F,6 E,2 |[M:3/4] x6 |[M:1/4] x2 |[M:4/4] x8 | x8 | x8 | %14
[M:3/4] z2 z2 B,,2 |[M:1/4] A,,2 |[M:4/4] G,,2 B,,2 z2 [F,,F,]2 | %17
 [G,,G,]4[K:treble][K:bass] z2 [=A,,=A,]2 | z2 A,2 G,4 |[M:3/4] x6 |[M:1/4] x2 |[M:4/4] x8 | %22
 z2 [E,E]2[K:treble] z4 | x4[K:bass] x4 | x8 |[M:2/4] x3[K:treble] x | x4 |[M:4/4] x8 | %28
 x6[K:bass] x2 | x6[K:treble] x2 | x2[K:bass] x6 |[M:3/4] x6 |] %32
V:5
 x8 | E,8 | x8 | x8 |[M:3/4] x6 |[M:1/4] x2 |[M:4/4] x8 | x5[K:treble] x3 | z4 F,,4 |[M:3/4] x6 | %10
[M:1/4] x2 |[M:4/4] x8 | x8 | x8 |[M:3/4] x6 |[M:1/4] x2 |[M:4/4] x8 | x[K:treble] x3[K:bass] x4 | %18
 B,,8- |[M:3/4] B,,6 |[M:1/4] x2 |[M:4/4] x8 | x3[K:treble] x5 | x4[K:bass] x4 | x8 | %25
[M:2/4] x3[K:treble] x | x4 |[M:4/4] x8 | x6[K:bass] x2 | x6[K:treble] x2 | x2[K:bass] x6 | %31
[M:3/4] x6 |] %32
V:6
 x8 | x8 | x8 | x8 |[M:3/4] C2 =B,2 _B,2 |[M:1/4] x2 |[M:4/4] x8 | x8 | x8 |[M:3/4][K:bass] x6 | %10
[M:1/4] x2 |[M:4/4][K:treble] z [B,D] z [B,D] z [B,D] z [B,D] | %12
 z [B,D][B,D][ce] z [B,D][B,D][B,D] | x8 |[M:3/4] x6 |[M:1/4] x2 |[M:4/4] x8 | x8 | x8 | %19
[M:3/4] x6 |[M:1/4] x2 |[M:4/4] x8 | x8 | z B, z D B2 A2 | x8 |[M:2/4] x4 | x4 |[M:4/4] x8 | x8 | %29
 F4- [F_Ad]2 d2 | x8 |[M:3/4] x6 |] %32
V:7
 z8 | z8 | z8 | z8 |[M:3/4] z6 |[M:1/4] z2 |[M:4/4] z8 | z8 | z8 |[M:3/4] z6 |[M:1/4] z2 | %11
[M:4/4] z8 | z8 | z8 |[M:3/4] z6 |[M:1/4] z2 |[M:4/4] z8 | z8 | z8 |[M:3/4] z6 |[M:1/4] B,2 | %21
[M:4/4] [B,EG]GGG [B,EG]GGG | [CEA]GFG [B,EG][B,EG][B,EB][B,EB] | [CEB]Bcc [B,EGB][GB][B,DFA][FA] | %24
 [B,EG][EG][B,EG][EG] [B,EG][EG][B,EG][EG] |[M:2/4] [B,EG]G GG | [CEF]F FF | %27
[M:4/4] [DFBd]ddd [FAd]dGG | [EGce][ce][EGB_de][de] [EAce][ce][EBe][EBe] | %29
 [F=Ae][FAe][FBe][Fce] [F_Ad][FAd][FBd][FBd] | [EBe][EBe][EAce][Ace] [B,EG][EG][B,DF][B,DF] | %31
[M:3/4][K:bass] [E,G,B,E]6 |] %32
V:8
 z8 | z8 | z8 | z8 |[M:3/4] z6 |[M:1/4] z2 |[M:4/4] z8 | z8 | z8 |[M:3/4] z6 |[M:1/4] z2 | %11
[M:4/4] z8 | z8 | z8 |[M:3/4] z6 |[M:1/4] z2 |[M:4/4] z8 | z8 | z8 |[M:3/4] z6 |[M:1/4] B,,2 | %21
[M:4/4] z [B,E][B,E][B,E] z [B,E][B,E][B,E] | z [B,E][A,E][B,E] [E,,E,]2 [G,,G,]2 | %23
 z[K:treble] [CE][CEA][CEA][K:bass] z [B,E] z [B,D] | z B, z B, z B, z B, | %25
[M:2/4] z [B,E] [B,E][B,E] | z [CE] [CE][CE] | %27
[M:4/4] z[K:treble] [DFB][DFB][DFB][K:bass] z[K:treble] [FA][DF][DF] | %28
 z [EG] z[K:treble] [EGB][K:bass] z [EA] [G,,G,]2 | [F,,F,]2 [G,,G,][=A,,=A,] [B,,B,]2 [_A,,_A,]2 | %30
 [G,,G,]2 z E z B,A,A, |[M:3/4] E,,6 |] %32
V:9
 x8 | x8 | x8 | x8 |[M:3/4] x6 |[M:1/4] x2 |[M:4/4] x8 | x8 | x8 |[M:3/4] x6 |[M:1/4] x2 | %11
[M:4/4] x8 | x8 | x8 |[M:3/4] x6 |[M:1/4] x2 |[M:4/4] x8 | x8 | x8 |[M:3/4] x6 |[M:1/4] x2 | %21
[M:4/4] [E,,E,]4 [E,,E,]4 | [E,,E,]4 z4 | [A,,A,]4[K:treble][K:bass] [G,,G,]2 [F,,F,]2 | %24
 [F,,E,]2 B,,2 G,,2 E,,2 |[M:2/4] [A,,A,]4 | [=A,,=A,]4 | %27
[M:4/4] [B,,B,]4[K:treble][K:bass] [=B,,=B,]4[K:treble] | %28
 [C,C]2 [B,,B,]2[K:treble][K:bass] [A,,A,]2 z2 | x8 | z2 [A,,A,]2 B,,4 |[M:3/4] x6 |] %32

